X:1
T:Myopia -- Hornpipe
R:hornpipe
B:Cole's 1000 Fiddle Tunes
M:2/4
L:1/16
K:D
uA2|dcdA Bcde|gfed cBAG|FAdf gfed|c"4"edB A2vBuc|
dAeA fAgA|agfe dcBA|dfeg faeg|f2d2d2:|
(ufg)|agfe defg|bagf e2(ued)|cAeA gfed|c"4"edB .A2(uBc)|
dAeA fAgA|agfe dcBA|Bdc"4"e df"0"eg|f2d2d2:|
